**kern	**kern	**dynam
*part1	*part1	*part1
*staff2	*staff1	*
*I"Piano	*	*
*clefG2	*clefG2	*
*k[f#]	*k[f#]	*
=1	=1	=1
*^	*^	*
4a	4d#X	8ggL	4b	<
.	.	8ff#	.	.
4g	4e	8ff#	4b	.
.	.	8ee	.	.
4g	4c#X	8ff#	4b	.
.	.	8ggJ	.	.
*v	*v	*	*	*
*clefF4	*	*	*
=	=	=	=
4d	8ggL	8bL	[ mf
.	8bJ	8gJ	.
4D	8r	8ryy	.
.	8bL	8gL	>
4D#X	8b	8g	.
.	8gJ	8BJ	.
=	=	=	=
2E	8gL	4B	]
.	8e	.	.
.	8B	4G	.
.	8e	.	.
4BB	8g	4A 4d#X	.
.	8f#J	.	.
=	=	=	=
4EE 4E	8d#XL	4G 4B	.
.	8e	.	>
*	*v	*v	*
4r	8c	.
.	8B	.
4rBB	8G<	.
.	8F#J<	.
=	=	=
2.rEE	8D#XL<	.
.	8E<	.
.	8G<	.
.	8B<	.
.	8e	]
.	8gJ	.
=	=	=
2.r;	2b;	pp
.	4r	.
=	=	=
2.r;	2.b;	.
==	==	==
*-	*-	*-
!!!system-decoration: {(s1,s2)}
!!!RDF**kern: < = below
